assets/icons/qvision/breakfast_dining.svg

<svg xmlns="http://www.w3.org/2000/svg" enable-background="new 0 0 24 24" height="24" viewBox="0 0 24 24" width="24"><g><rect fill="none" height="24" width="24"/></g><g><path d="M18,3H6C3.79,3,2,4.79,2,7c0,1.48,0.81,2.75,2,3.45V19c0,1.1,0.9,2,2,2h12 c1.1,0,2-0.9,2-2v-8.55c1.19-0.69,2-1.97,2-3.45C22,4.79,20.21,3,18,3z M14,15h-4v-4h4V15z" fill-rule="evenodd"/></g></svg>

<svg width="24" height="24" viewBox="0 0 24 24" fill="none" xmlns="http://www.w3.org/2000/svg">
<g clip-path="url(#clip0_147_5118)">
<path fill-rule="evenodd" clip-rule="evenodd" d="M18 3H6C3.79 3 2 4.79 2 7C2 8.48 2.81 9.75 4 10.45V19C4 20.1 4.9 21 6 21H18C19.1 21 20 20.1 20 19V10.45C21.19 9.76 22 8.48 22 7C22 4.79 20.21 3 18 3ZM14 15H10V11H14V15Z" fill="#323232"/>
</g>
<defs>
<clipPath id="clip0_147_5118">
<rect width="24" height="24" fill="white"/>
</clipPath>
</defs>
</svg>
